X:980
T:Tekeli Tune
A:Wyresdale, Lancashire
B:E and J Winder, 1835-41
L:1/8
M:6/8
O:England
Z:Richard Robinson 
%%TUNEURL: http://www.leeds.ac.uk/music/Info/RRTuneBk/gettune/00001105.html
%%ID:00001105
K:C
c2c cBc | A2c G3 | GAB cde | f2d B2G | \
c2c cBc | A2c G3 | GAB cde | fdB c3 ::
c2d e3 | efe d2c | {e}d2c {e}d2c | c2e c2G | \
c2d e3 | efe d2c | d2c       d2g | c3 c3 ::
